X:1
T:Dibdin, CM
T:Dibdin, CM
T:Dr. Jackson, 1852
T:Public Domain Courtesy of the Cyber Hymnal™
C:Dr. Jackson, 1852
Z:Public Domain
Z:Courtesy of the Cyber Hymnal™
%%score ( 1 2 ) ( 3 4 )
L:1/8
Q:1/4=110
M:4/4
K:F
V:1 treble 
V:2 treble 
V:3 bass 
V:4 bass 
V:1
 [DF]2 | [FA]2 [EA]2 [Dd]2 c2 | [GB]2 [^FA]2 !fermata![GB]2 [DA]2 | [G^c]2 [Fd]2 [EG]2 [DF]2 | %4
 [^CE]6 [E^c]2 | [E^c]2 [Ec]2 [Dd]2 [G=c]2 | [FB]2 [FA]2 !fermata![EG]2 [EA]2 | %7
 F2 z [DF]2 [^CE]2 x | D6 |] %9
V:2
 x2 | x6 (E^F) | x8 | x8 | x8 | x8 | x8 | D3 (G2 E) x2 | D6 |] %9
V:3
 [D,A,]2 | [D,A,]2 [C,A,]2 [B,,F,]2 [A,,A,]2 | (B,C) [D,D]2 !fermata![G,D]2 [F,A,]2 | %3
 [E,G,]2 [D,A,]2 [^C,A,]2 [D,A,]2 | [A,,A,]6 A,2 | A,2 [G,A,]2 [F,A,]2 [E,G,]2 | %6
 [D,B,]2 [F,C]2 !fermata![C,C]2 [^C,A,]2 | [D,A,]2 [G,,B,]2 [A,,A,]2 (A,G,) | [D,F,]6 |] %9
V:4
 x2 | x8 | G,,2 x6 | x8 | x6 A,2 | A,2 x6 | x8 | x6 A,,2 | x6 |] %9

